svgs/duotone/train-subway.svg

<svg xmlns="http://www.w3.org/2000/svg" viewBox="0 0 448 512"><!--! Font Awesome Pro 6.4.0 by @fontawesome - https://fontawesome.com License - https://fontawesome.com/license (Commercial License) Copyright 2023 Fonticons, Inc. --><defs><style>.fa-secondary{opacity:.4}</style></defs><path class="fa-primary" d="M0 96C0 43 43 0 96 0H352c53 0 96 43 96 96V352c0 53-43 96-96 96H96c-53 0-96-43-96-96V96zm64 32v96c0 17.7 14.3 32 32 32h80c17.7 0 32-14.3 32-32V128c0-17.7-14.3-32-32-32H96c-17.7 0-32 14.3-32 32zM272 96c-17.7 0-32 14.3-32 32v96c0 17.7 14.3 32 32 32h80c17.7 0 32-14.3 32-32V128c0-17.7-14.3-32-32-32H272zM128 352a32 32 0 1 0 -64 0 32 32 0 1 0 64 0zm224 32a32 32 0 1 0 0-64 32 32 0 1 0 0 64z"/><path class="fa-secondary" d="M64 128v96c0 17.7 14.3 32 32 32h80c17.7 0 32-14.3 32-32V128c0-17.7-14.3-32-32-32H96c-17.7 0-32 14.3-32 32zM81.1 446.9l-46 46C28.1 499.9 33.1 512 43 512H82.7c8.5 0 16.6-3.4 22.6-9.4L160 448H96c-5.1 0-10-.4-14.9-1.1zM288 448l54.6 54.6c6 6 14.1 9.4 22.6 9.4H405c10 0 15-12.1 7.9-19.1l-46-46c-4.8 .8-9.8 1.1-14.9 1.1H288zM272 96c-17.7 0-32 14.3-32 32v96c0 17.7 14.3 32 32 32h80c17.7 0 32-14.3 32-32V128c0-17.7-14.3-32-32-32H272z"/></svg>

<svg xmlns="http://www.w3.org/2000/svg" viewBox="0 0 448 512"><!--! Font Awesome Pro 6.3.0 by @fontawesome - https://fontawesome.com License - https://fontawesome.com/license (Commercial License) Copyright 2023 Fonticons, Inc. --><defs><style>.fa-secondary{opacity:.4}</style></defs><path class="fa-primary" d="M0 96C0 42.98 42.98 0 96 0H352C405 0 448 42.98 448 96V352C448 405 405 448 352 448H96C42.98 448 0 405 0 352V96zM64 224C64 241.7 78.33 256 96 256H176C193.7 256 208 241.7 208 224V128C208 110.3 193.7 96 176 96H96C78.33 96 64 110.3 64 128V224zM272 96C254.3 96 240 110.3 240 128V224C240 241.7 254.3 256 272 256H352C369.7 256 384 241.7 384 224V128C384 110.3 369.7 96 352 96H272zM96 320C78.33 320 64 334.3 64 352C64 369.7 78.33 384 96 384C113.7 384 128 369.7 128 352C128 334.3 113.7 320 96 320zM352 384C369.7 384 384 369.7 384 352C384 334.3 369.7 320 352 320C334.3 320 320 334.3 320 352C320 369.7 334.3 384 352 384z"/><path class="fa-secondary" d="M64 128C64 110.3 78.33 96 96 96H176C193.7 96 208 110.3 208 128V224C208 241.7 193.7 256 176 256H96C78.33 256 64 241.7 64 224V128zM96 447.1H160L105.4 502.6C99.37 508.6 91.23 511.1 82.75 511.1H43.04C33.06 511.1 28.06 499.9 35.12 492.9L81.14 446.9C85.98 447.6 90.95 447.1 96 447.1H96zM352 447.1C357.1 447.1 362 447.6 366.9 446.9L412.9 492.9C419.9 499.9 414.9 511.1 404.1 511.1H365.3C356.8 511.1 348.6 508.6 342.6 502.6L288 447.1H352zM352 96C369.7 96 384 110.3 384 128V224C384 241.7 369.7 256 352 256H272C254.3 256 240 241.7 240 224V128C240 110.3 254.3 96 272 96H352z"/></svg>
